!!!!SEGMENT: pl-kk--kk-i-124--002_anonim--domus-mea.krn
!!!cenid: 16xx:1353
!!!COM: Anonim
!!!COM-rismid: pe30004985
!!!CDT:
!!!CNT:
!!!OTL: Domus mea
!!!PDT:
!!!AGN: Sacred
!!!SMS-siglum: PL-Kk
!!!SMS-shelfmark: Kk.I.124
!!!SMS-shelfwork: 002 W
!!!SMS-variant:
!!!SMS-altvar:
!!!NIFC-rismid: 1001153688
!!!URL-scan: http://repozytorium.nifc.pl/skany/pl-kk-nut--i-124
!!!ONB-nifc: UWAGA: wg RISM obsada A, T 1, T 2, B 1, B 2
**kern	**text	**kern	**text	**kern	**text	**kern	**text	**kern	**text
*part5	*part5	*part4	*part4	*part3	*part3	*part2	*part2	*part1	*part1
*staff5	*staff5	*staff4	*staff4	*staff3	*staff3	*staff2	*staff2	*staff1	*staff1
*Ibass	*	*Ibass	*	*Itenor	*	*Itenor	*	*Ialto	*
*I"[Basso 2]	*	*I"[Basso 1]	*	*I"[Tenore 2]	*	*I"[Tenore 1]	*	*I"[Alto]	*
*I'B 2	*	*I'B 1	*	*I'T 2	*	*I'T 1	*	*I'A	*
*clefF4	*	*clefC4	*	*clefC1	*	*clefC4	*	*clefC3	*
*k[b-]	*	*k[b-]	*	*k[b-]	*	*k[b-]	*	*k[b-]	*
*F:	*	*F:	*	*F:	*	*F:	*	*F:	*
*M2/1	*	*M2/1	*	*M2/1	*	*M2/1	*	*M2/1	*
*met(C|)	*	*met(C|)	*	*met(C|)	*	*met(C|)	*	*met(C|)	*
=1-	=1-	=1-	=1-	=1-	=1-	=1-	=1-	=1-	=1-
!LO:TX:t=P:problem:kreska pseudotaktowa	!	!	!	!	!	!	!	!	!
*	*	*lig	*	*	*	*	*	*	*
1C/	Do-	1G/	Do-	0r	.	1G/	Do-	1c\	Do-
*lig	*	*	*	*	*	*	*	*	*
!	!	!LO:TX:t=P:problem:kreska pseudotaktowa	!	!	!	!	!	!	!
*	*	*	*	*	*	*lig	*	*	*
1FF/	-m(us)	1A\	-m(us)	.	.	1F/	-mus	2c\	-mus
!	!	!	!	!	!	!	!	!LO:TX:t=P:problem:kreska pseudotaktowa:między nutą a kropką	!
.	.	.	.	.	.	.	.	2.f\	.
*	*	*Xlig	*	*	*	*	*	*	*
=2-	=2-	=2-	=2-	=2-	=2-	=2-	=2-	=2-	=2-
!	!	!	!	!LO:TX:t=P:problem:kreska pseudotaktowa	!	!LO:TX:t=P:problem:kreska pseudotaktowa	!	!	!
1C/	.	2G/	.	1r	.	1G/	.	.	.
.	.	.	.	.	.	.	.	4e\	me-
.	.	2.c\	me-	.	.	.	.	2c/	.
*Xlig	*	*	*	*	*	*Xlig	*	*	*
*lig	*	*	*	*	*	*lig	*	*	*
!	!	!	!	!	!	!	!	!LO:TX:t=P:problem:kreska pseudotaktowa	!
1E-X\	me-	.	.	1g\	Do-	1G/	me-	1g\	-a
.	.	4B-\	.	.	.	.	.	.	.
!	!	!LO:TX:t=P:problem:kreska pseudotaktowa	!	!	!	!	!	!	!
.	.	2G/	.	.	.	.	.	.	.
=3-	=3-	=3-	=3-	=3-	=3-	=3-	=3-	=3-	=3-
!	!	!LO:TX:t=P:problem:kreska pseudotaktowa	!	!	!	!	!	!	!
*	*	*	*	*lig	*	*	*	*	*
!LO:TX:t=P:problem:kreska pseudotaktowa	!	!	!	!	!	!	!	!	!
1D\	.	0d\	-a	1f/	-mus	1A\	.	1r	.
*Xlig	*	*	*	*	*	*Xlig	*	*	*
!	!	!	!	!LO:TX:t=P:problem:kreska pseudotaktowa	!	!	!	!	!
*	*	*	*	*	*	*lig	*	*	*
2GG/	-a	.	.	1g\	.	1B-\	.	1d\	do-
1G\	Do-	.	.	.	.	.	.	.	.
*	*	*	*	*Xlig	*	*	*	*	*
=4-	=4-	=4-	=4-	=4-	=4-	=4-	=4-	=4-	=4-
*	*	*	*	*lig	*	*	*	*	*
!	!	!	!	!	!	!	!	!LO:TX:t=P:problem:kreska pseudotaktowa	!
.	.	1r	.	1a\	me-	1A\	.	1c\	-m(us)
!LO:TX:t=P:problem:kreska pseudotaktowa	!	!	!	!	!	!	!	!	!
2F\	.	.	.	.	.	.	.	.	.
*	*	*	*	*	*	*Xlig	*	*	*
2G\	-m(us)	1G/	do-	1b-\	-a	1G/	.	4B-\	me-
.	.	.	.	.	.	.	.	4c\	.
!LO:TX:t=P:problem:kreska pseudotaktowa	!	!	!	!	!	!	!	!	!
2GG/	.	.	.	.	.	.	.	4d\	.
.	.	.	.	.	.	.	.	4e\	.
*	*	*	*	*Xlig	*	*	*	*	*
=5-	=5-	=5-	=5-	=5-	=5-	=5-	=5-	=5-	=5-
*	*	*lig	*	*lig	*	*	*	*	*
1D\	me-	1F/	-m(us)	1a\	.	1A\	.	2.f\	.
!	!	!	!	!	!	!	!	!LO:TX:t=P:problem:kreska pseudotaktowa	!
.	.	.	.	.	.	.	.	4e\	.
!	!	!	!	!LO:TX:t=P:problem:kreska pseudotaktowa	!	!	!	!	!
*	*	*	*	*	*	*lig	*	*	*
!LO:TX:t=P:problem:kreska pseudotaktowa	!	!LO:TX:t=P:problem:kreska pseudotaktowa	!	!	!	!	!	!	!
1GG/	-a	1G/	.	1g\	.	1B-\	.	1d\	.
*	*	*Xlig	*	*Xlig	*	*	*	*	*
!LO:LB:g=original	!	!	!	!	!	!	!	!	!
=6-	=6-	=6-	=6-	=6-	=6-	=6-	=6-	=6-	=6-
*lig	*	*	*	*lig	*	*	*	*	*
!	!	!	!	!	!	!LO:TX:t=P:problem:kreska pseudotaktowa	!	!	!
1C/	Do-	2G/	o-	1g\	do-	1G/	-a	1c\	-a
.	.	2c\	-ra-	.	.	.	.	.	.
*	*	*	*	*	*	*Xlig	*	*	*
*	*	*	*	*	*	*lig	*	*	*
1G\	.	2B-\	-ti-	1b-\	-m(us)	1G/	Do-	2d\	Do-
!	!	!	!	!	!	!	!	!LO:LB:g=original	!
.	.	2G/	-o-	.	.	.	.	4d\	-mus
.	.	.	.	.	.	.	.	4e\	.
!	!	!	!	!LO:LB:g=original	!	!	!	!LO:TX:t=P:problem:kreska pseudotaktowa	!
*Xlig	*	*	*	*Xlig	*	*	*	*	*
=7-	=7-	=7-	=7-	=7-	=7-	=7-	=7-	=7-	=7-
!	!	!LO:TX:t=P:problem:kreska pseudotaktowa	!	!	!	!	!	!	!
2F\	-m(us)	1A\	-nis	2a\	o-	1c\	.	2f\	.
!LO:TX:t=P:problem:kreska pseudotaktowa	!	!	!	!	!	!	!	!	!
2A\	o-	.	.	1cc\	-ra-	.	.	2c/	o-
*	*	*	*	*	*	*Xlig	*	*	*
!	!	!	!	!	!	!LO:LB:g=original	!	!	!
1G\	-ra-	2r	.	.	.	1d\	.	2.g\	-ra-
!	!	!	!	!LO:TX:t=P:problem:kreska pseudotaktowa	!	!	!	!	!
.	.	1G/	do-	2b-\	-ti-	.	.	.	.
!	!	!	!	!	!	!	!	!LO:TX:t=P:problem:kreska pseudotaktowa	!
.	.	.	.	.	.	.	.	4f\	.
=8-	=8-	=8-	=8-	=8-	=8-	=8-	=8-	=8-	=8-
!	!	!	!	!	!	!LO:TX:t=P:problem:kreska pseudotaktowa	!	!	!
2C/	-ti-	.	.	2.cc\	-o-	1c\	-muſ	4e\	.
.	.	.	.	.	.	.	.	4d\	-ti-
!LO:TX:t=P:problem:kreska pseudotaktowa	!	!LO:TX:t=P:problem:kreska pseudotaktowa	!	!	!	!	!	!	!
2E-X\	-o-	2G/	-m(us)	.	.	.	.	1c\	-o-
.	.	.	.	4b-\	.	.	.	.	.
1D\	-nis	2A/	o-	2a\	.	1F/	o-	.	.
.	.	1F/	-ra-	2b-\	.	.	.	2B-/	.
=9-	=9-	=9-	=9-	=9-	=9-	=9-	=9-	=9-	=9-
!LO:TX:t=P:problem:kreska pseudotaktowa	!	!	!	!LO:TX:t=P:problem:kreska pseudotaktowa	!	!	!	!LO:TX:t=P:problem:kreska pseudotaktowa	!
1C/	.	.	.	1g\	.	1G/	-ra-	0c\	-nis
.	.	2E/	-ti-	.	.	.	.	.	.
*	*	*lig	*	*	*	*lig	*	*	*
1r	.	1F/	-o-	2r	.	1A\	-ti-	.	.
.	.	.	.	1f/	Vo-	.	.	.	.
=10-	=10-	=10-	=10-	=10-	=10-	=10-	=10-	=10-	=10-
1C/	vo-	1G/	.	.	.	1c\	.	1r	.
.	.	.	.	2e/	-ca-	.	.	.	.
*	*	*Xlig	*	*	*	*Xlig	*	*	*
1.F\	-ca-	2A,</	-nis	1f/	-bi-	1c\	-o-	2r	.
!	!	!LO:TX:t=P:problem:kreska pseudotaktowa	!	!	!	!	!	!LO:TX:t=P:problem:kreska pseudotaktowa	!
.	.	2A/	vo-	.	.	.	.	2c/	Vo-
=11-	=11-	=11-	=11-	=11-	=11-	=11-	=11-	=11-	=11-
!	!	!	!	!LO:TX:t=P:problem:kreska pseudotaktowa	!	!LO:TX:t=P:problem:kreska pseudotaktowa	!	!	!
.	.	2B-\	-ca-	1g\	-t(ur)	1G/	-nis	2d\	-ca-
!LO:TX:t=P:problem:kreska pseudotaktowa	!	!	!	!	!	!	!	!LO:TX:t=P:problem:kreska pseudotaktowa	!
2Eny\	-bi-	2c\	.	.	.	.	.	2e\	-bi-
1D\	-tur	1d\	.	2r	.	1A\	Vo-	1f\	-tur
.	.	.	.	2a\	Vo-	.	.	.	.
=12-	=12-	=12-	=12-	=12-	=12-	=12-	=12-	=12-	=12-
*	*	*	*	*lig	*	*lig	*	*	*
2AA/	.	2c#X\	-bi-	1a\	-ca-	1A\	-ca-	2e\	Vo-
!LO:TX:t=P:problem:kreska pseudotaktowa	!	!LO:TX:t=P:problem:kreska pseudotaktowa	!	!	!	!	!	!LO:TX:t=P:problem:kreska pseudotaktowa	!
2D/	vo-	2d\	-t(ur)	.	.	.	.	2f\	-ca-
2GG/	-ca-	2.B-\	vo-	1b-\	.	1G/	.	1g\	-bi
2GG/	-bi-	.	.	.	.	.	.	.	.
.	.	4cny\	.	.	.	.	.	.	.
*	*	*	*	*Xlig	*	*Xlig	*	*	*
=13-	=13-	=13-	=13-	=13-	=13-	=13-	=13-	=13-	=13-
!LO:TX:t=P:problem:kreska pseudotaktowa	!	!	!	!	!	!	!	!	!
1D\	-tur	2d\	.	1a\	-bi-	1A\	.	2f\	t(ur)
!	!	!	!	!	!	!	!	!LO:TX:t=P:problem:kreska pseudotaktowa	!
.	.	2.D/	-ca-	.	.	.	.	2d\	vo-
!	!	!	!	!LO:TX:t=P:problem:kreska pseudotaktowa	!	!	!	!	!
2r	.	.	.	1a\	-t(ur)	1F/	-bi-	1.f\	-ca-
.	.	4E/	.	.	.	.	.	.	.
2D/	vo-	4F/	.	.	.	.	.	.	.
.	.	4G/	.	.	.	.	.	.	.
!	!	!LO:LB:g=original	!	!	!	!	!	!	!
=14-	=14-	=14-	=14-	=14-	=14-	=14-	=14-	=14-	=14-
1D\	-ca-	2A/	.	1r	.	1F/	-tur	.	.
.	.	2B-\	.	.	.	.	.	4e\	.
!	!	!	!	!	!	!	!	!LO:TX:t=P:problem:kreska pseudotaktowa	!
.	.	.	.	.	.	.	.	4d\	-bi-
!LO:TX:t=P:problem:kreska pseudotaktowa	!	!	!	!	!	!	!	!	!
*	*	*	*	*lig	*	*	*	*	*
1C/	-bi-	2c\	.	1cc\	di-	1G/	.	1e\	.
.	.	2c\	-bi-	.	.	.	.	.	.
!LO:LB:g=original	!	!	!	!	!	!	!	!	!
=15-	=15-	=15-	=15-	=15-	=15-	=15-	=15-	=15-	=15-
!	!	!LO:TX:t=P:problem:kreska pseudotaktowa	!	!	!	!	!	!	!
*	*	*	*	*col	*	*	*	*	*
!	!	!	!	!	!	!	!	!LO:SIC:v:t=custos e-	!
!LO:TX:t=P:problem:kreska pseudotaktowa	!	!	!	!	!	!LO:TX:t=P:problem:kreska pseudotaktowa	!	!LO:TX:t=P:problem:kreska pseudotaktowa	!
1BB-/	-tur	1F/	-t(ur)	2.dd\	.	1B-\,<	.	1d\	-tur
*	*	*	*	*Xlig	*	*	*	*	*
!	!	!	!	!LO:TX:t=P:problem:kreska pseudotaktowa	!	!	!	!	!
.	.	.	.	4cc\	.	.	.	.	.
*	*	*	*	*Xcol	*	*	*	*	*
!	!	!	!	!	!	!	!	!LO:LB:g=original	!
1.E-X\	di-	2r	.	4b-\	.	1B-\	di-	1e-X\	di-
.	.	.	.	4a\	.	.	.	.	.
.	.	1G/	di-	2b-\	.	.	.	.	.
!	!	!	!	!LO:LB:g=original	!	!	!	!	!
=16-	=16-	=16-	=16-	=16-	=16-	=16-	=16-	=16-	=16-
*	*	*	*	*	*	*lig	*	*	*
!	!	!	!	!	!	!	!	!LO:TX:t=P:problem:kreska pseudotaktowa	!
.	.	.	.	2g/	-cit	1B-\	-cit	0e-y\	-cit
!LO:TX:t=P:problem:kreska pseudotaktowa	!	!LO:TX:t=P:problem:kreska pseudotaktowa	!	!	!	!	!	!	!
2E-\	-cit	2G/	-cit	1b-\	do-	.	.	.	.
1E-\	Do-	2B-\	Do-	.	.	1G/	.	.	.
!	!	!LO:TX:t=P:problem:kreska pseudotaktowa	!	!	!	!	!	!	!
.	.	2c\	-mi-	4a\	.	.	.	.	.
!	!	!	!	!LO:TX:t=P:problem:kreska pseudotaktowa	!	!	!	!	!
.	.	.	.	4g\	.	.	.	.	.
*	*	*	*	*	*	*Xlig	*	*	*
=17-	=17-	=17-	=17-	=17-	=17-	=17-	=17-	=17-	=17-
1D\	-mi-	2d\	-n(us)	4f/	.	1A\	.	2r	.
.	.	.	.	4g\	.	.	.	.	.
.	.	1D/	di-	1a\	.	.	.	1d\	di-
*	*	*	*	*	*	*lig	*	*	*
4GG/	-n(us)	.	.	.	.	1B-\	.	.	.
4AA/	.	.	.	.	.	.	.	.	.
!	!	!LO:TX:t=P:problem:kreska pseudotaktowa	!	!	!	!	!	!LO:TX:t=P:problem:kreska pseudotaktowa	!
4BB-/	.	2D/	-cit	2.g/	.	.	.	2d\	-cit
!LO:TX:t=P:problem:kreska pseudotaktowa	!	!	!	!	!	!	!	!	!
4C/	.	.	.	.	.	.	.	.	.
=18-	=18-	=18-	=18-	=18-	=18-	=18-	=18-	=18-	=18-
4D\	.	4F/	Do-	.	.	1A\	.	2d\	Do-
4Eny\	.	4G/	.	4f/	.	.	.	.	.
!LO:TX:t=P:problem:kreska pseudotaktowa	!	!	!	!	!	!	!	!	!
2F\	.	4A\	.	1f/	-mi-	.	.	2.c/	.
.	.	4B-\	.	.	.	.	.	.	.
*	*	*	*	*	*	*Xlig	*	*	*
!	!	!	!	!	!	!LO:LB:g=original	!	!	!
!LO:TX:t=P:problem:kreska pseudotaktowa	!	!	!	!	!	!LO:TX:t=P:problem:kreska pseudotaktowa	!	!	!
1C/	di-	2.c\	.	.	.	1G/	.	.	.
.	.	.	.	.	.	.	.	4B-/	.
!	!	!	!	!LO:TX:t=P:problem:kreska pseudotaktowa	!	!	!	!LO:TX:t=P:problem:kreska pseudotaktowa	!
.	.	.	.	2e/	-n(us)	.	.	2G/	-mi-
!	!	!LO:TX:t=P:problem:kreska pseudotaktowa	!	!	!	!	!	!	!
.	.	4B-\	.	.	.	.	.	.	.
=19-	=19-	=19-	=19-	=19-	=19-	=19-	=19-	=19-	=19-
!	!	!	!	!	!	!	!	!LO:TX:t=P:problem:kreska pseudotaktowa	!
2.D/	-cit	4A/	.	2d/	.	1F/	.	1d\	-nus
.	.	4G/	.	.	.	.	.	.	.
.	.	4F/	.	2.f/	di-	.	.	.	.
4C/	.	4E/	.	.	.	.	.	.	.
*	*	*	*	*	*	*lig	*	*	*
2BB-/	Do-	4D/	.	.	.	1F/	Do-	0r	.
.	.	4C/	.	4g\	.	.	.	.	.
!LO:TX:t=P:problem:kreska pseudotaktowa	!	!	!	!	!	!	!	!	!
2AA/	-mi-	1F/	.	2a\	.	.	.	.	.
=20-	=20-	=20-	=20-	=20-	=20-	=20-	=20-	=20-	=20-
1GG/	-n(us)	.	.	1b-\	-cit	1G/	.	.	.
!	!	!LO:TX:t=P:problem:kreska pseudotaktowa	!	!	!	!	!	!	!
.	.	2E/	-mi-	.	.	.	.	.	.
*	*	*	*	*	*	*Xlig	*	*	*
!LO:TX:t=P:problem:kreska pseudotaktowa	!	!	!	!	!	!	!	!	!
*	*	*	*	*	*	*lig	*	*	*
!	!	!LO:TX:t=P:problem:kreska pseudotaktowa	!	!	!	!	!	!	!
1FF/	.	1F/	-n(us)	2a\	.	1A\	.	1.c\	di-
!	!	!	!	!LO:TX:t=P:problem:kreska pseudotaktowa	!	!	!	!	!
.	.	.	.	2f/	do-	.	.	.	.
!	!	!LO:LB:g=original	!	!	!	!	!	!	!
=21-	=21-	=21-	=21-	=21-	=21-	=21-	=21-	=21-	=21-
*	*ij	*	*	*	*	*	*	*	*
1C/	di-	0r	.	2.g/	.	1G/	.	.	.
.	.	.	.	.	.	.	.	2c/	-cit
.	.	.	.	4a\	.	.	.	.	.
!	!	!	!	!	!	!	!	!LO:TX:t=P:problem:kreska pseudotaktowa	!
*	*	*	*	*	*	*Xlig	*	*	*
!LO:TX:t=P:problem:kreska pseudotaktowa	!	!	!	!	!	!	!	!	!
*	*	*	*	*	*	*lig	*	*	*
1D\	-cit	.	.	4b-\	.	1F/	-mi-	2B-/	Do-
.	.	.	.	4a\	.	.	.	.	.
.	.	.	.	4g\	.	.	.	2A/	-mi-
!	!	!	!	!LO:TX:t=P:problem:kreska pseudotaktowa	!	!	!	!	!
.	.	.	.	4f\	.	.	.	.	.
=22-	=22-	=22-	=22-	=22-	=22-	=22-	=22-	=22-	=22-
!	!	!	!	!	!	!	!	!LO:TX:t=P:problem:kreska pseudotaktowa	!
1C/	Do-	1r	.	2e/	.	1G/	.	1c\	-n(us)
.	.	.	.	1f/	.	.	.	.	.
*	*	*	*	*	*	*Xlig	*	*	*
*	*	*	*	*	*	*lig	*	*	*
1C/	-mi-	0C/	me-	.	.	1G/	-nus	2r	.
.	.	.	.	2e/	-mi-	.	.	1c\	in
=23-	=23-	=23-	=23-	=23-	=23-	=23-	=23-	=23-	=23-
!LO:TX:t=P:problem:kreska pseudotaktowa	!	!	!	!LO:TX:t=P:problem:kreska pseudotaktowa	!	!LO:TX:t=P:problem:kreska pseudotaktowa	!	!	!
1FF/	-n(us)	.	.	1f/	-n(us)	1F/	.	.	.
.	.	.	.	.	.	.	.	2.f\	e-
*	*Xij	*	*	*	*	*Xlig	*	*	*
!	!	!	!	!LO:LB:g=original	!	!LO:TX:t=P:problem:kreska pseudotaktowa	!	!	!
1r	.	2D/	.	2r	.	1F/	in	.	.
.	.	.	.	.	.	.	.	4eny\	.
.	.	1F/	.	2f/	in	.	.	4d\	.
!	!	!	!	!	!	!	!	!LO:TX:t=P:problem:kreska pseudotaktowa	!
.	.	.	.	.	.	.	.	4c\	.
!LO:LB:g=original	!	!	!	!	!	!	!	!	!
=24-	=24-	=24-	=24-	=24-	=24-	=24-	=24-	=24-	=24-
*	*	*	*	*	*	*lig	*	*	*
2r	.	.	.	2b-\	e-	1G/	e-	2B-/	.
!LO:TX:t=P:problem:kreska pseudotaktowa	!	!LO:TX:t=P:problem:kreska pseudotaktowa	!	!LO:TX:t=P:problem:kreska pseudotaktowa	!	!	!	!	!
2C/	in	2E/	.	2g/	-a	.	.	2c/	.
!	!	!	!	!	!	!	!	!LO:SIC:v:t=custos f	!
2.F\	e-	2F/	-a	2.f/	o-	1A\	.	2A/	-a
!	!	!	!	!	!	!	!	!LO:LB:g=original	!
.	.	1D/	in	.	.	.	.	1f\	o-
4E\	.	.	.	4g\	.	.	.	.	.
*	*	*	*	*	*	*Xlig	*	*	*
=25-	=25-	=25-	=25-	=25-	=25-	=25-	=25-	=25-	=25-
!	!	!	!	!	!	!LO:TX:t=P:problem:kreska pseudotaktowa	!	!	!
2D/	.	.	.	4a\	.	1A\	-a	.	.
.	.	.	.	4b-\	.	.	.	.	.
!LO:TX:t=P:problem:kreska pseudotaktowa	!	!LO:TX:t=P:problem:kreska pseudotaktowa	!	!LO:TX:t=P:problem:kreska pseudotaktowa	!	!	!	!	!
2C/	.	2E/	e-	2cc\	.	.	.	2e\	-mnis
*	*	*	*	*	*	*lig	*	*	*
1D\	.	1F/	.	2f/	-mnis	1A\	o-	0.d\	.
.	.	.	.	2a\	qui	.	.	.	.
=26-	=26-	=26-	=26-	=26-	=26-	=26-	=26-	=26-	=26-
1GG/	-a	2D/	.	1b-\	pe-	1G/	.	.	.
.	.	1G/	.	.	.	.	.	.	.
*	*	*	*	*	*	*Xlig	*	*	*
!	!	!	!	!LO:TX:t=P:problem:kreska pseudotaktowa	!	!	!	!	!
*	*	*	*	*	*	*lig	*	*	*
1D\	om-	.	.	1a\	-tit	1A\	.	.	.
!	!	!LO:TX:t=P:problem:kreska pseudotaktowa	!	!	!	!	!	!	!
.	.	2F/	-a	.	.	.	.	.	.
=27-	=27-	=27-	=27-	=27-	=27-	=27-	=27-	=27-	=27-
0C/	-nis	2.G/	o-	0r	.	1c\	.	1r	.
.	.	4F/	.	.	.	.	.	.	.
*	*	*	*	*	*	*Xlig	*	*	*
.	.	4E/	.	.	.	1G/	.	2r	.
.	.	4D/	.	.	.	.	.	.	.
.	.	2E/	.	.	.	.	.	1c\	qui
=28-	=28-	=28-	=28-	=28-	=28-	=28-	=28-	=28-	=28-
!LO:TX:t=P:problem:kreska pseudotaktowa	!	!LO:TX:t=P:problem:kreska pseudotaktowa	!	!LO:TX:t=P:problem:kreska pseudotaktowa	!	!	!	!	!
0FF/	.	1F/	-mnis	1f/	qui	1A\	.	.	.
!	!	!	!	!	!	!	!	!LO:TX:t=P:problem:kreska pseudotaktowa	!
.	.	.	.	.	.	.	.	2c/	pe-
*	*	*	*	*lig	*	*	*	*	*
!	!	!	!	!	!	!LO:TX:t=P:problem:kreska pseudotaktowa	!	!	!
.	.	2r	.	1a\	pe-	1F/	-mnis	2A/	-tit
.	.	2F/	qui	.	.	.	.	2.c\	ac-
=29-	=29-	=29-	=29-	=29-	=29-	=29-	=29-	=29-	=29-
*	*	*lig	*	*	*	*	*	*	*
1r	.	1A\	.	1cc\	.	1F/	qui	.	.
.	.	.	.	.	.	.	.	4B-/	.
.	.	.	.	.	.	.	.	4A/	.
!	!	!	!	!	!	!	!	!LO:TX:t=P:problem:kreska pseudotaktowa	!
.	.	.	.	.	.	.	.	4G/	.
*	*	*col	*	*Xlig	*	*lig	*	*	*
!	!	!	!	!	!	!LO:LB:g=original	!	!	!
1FF/	qui	2.c\	pe-	0cc\	-tit	1A\	pe-	2F/	.
.	.	.	.	.	.	.	.	2.f\	.
*	*	*Xlig	*	*	*	*	*	*	*
!	!	!LO:TX:t=P:problem:kreska pseudotaktowa	!	!	!	!	!	!	!
.	.	4B-\	.	.	.	.	.	.	.
*	*	*Xcol	*	*	*	*	*	*	*
=30-	=30-	=30-	=30-	=30-	=30-	=30-	=30-	=30-	=30-
*lig	*	*	*	*	*	*	*	*	*
1AA/	pe-	1A\	.	.	.	1c\	.	.	.
.	.	.	.	.	.	.	.	4e\	.
.	.	.	.	.	.	.	.	4c\	.
!	!	!	!	!	!	!	!	!LO:TX:t=P:problem:kreska pseudotaktowa	!
.	.	.	.	.	.	.	.	4d\	.
*	*	*	*	*	*	*Xlig	*	*	*
!LO:TX:t=P:problem:kreska pseudotaktowa	!	!	!	!	!	!LO:TX:t=P:problem:kreska pseudotaktowa	!	!	!
1C/	.	2G/	.	2r	.	1c\	-tit	2e\	.
!	!	!LO:SIC:v:t=custos G	!	!	!	!	!	!	!
.	.	2F/	.	1cc\	qui	.	.	1f\	.
*Xlig	*	*	*	*	*	*	*	*	*
!	!	!LO:LB:g=original	!	!	!	!	!	!	!
=31-	=31-	=31-	=31-	=31-	=31-	=31-	=31-	=31-	=31-
*	*	*	*	*	*	*lig	*	*	*
2C,</	-tit	1G/	.	.	.	1c\	ac-	.	.
!LO:TX:t=P:problem:kreska pseudotaktowa	!	!	!	!LO:TX:t=P:problem:kreska pseudotaktowa	!	!	!	!	!
2C/	ac-	.	.	2cc\	pe-	.	.	2e\	-ci-
!	!	!LO:TX:t=P:problem:kreska pseudotaktowa	!	!	!	!	!	!LO:TX:t=P:problem:kreska pseudotaktowa	!
1F\	-ci-	1F/	-tit	2cc\	-tit	1A\	.	1f\	-pit
.	.	.	.	2a\	ac-	.	.	.	.
*	*	*	*	*	*	*Xlig	*	*	*
=32-	=32-	=32-	=32-	=32-	=32-	=32-	=32-	=32-	=32-
*	*	*	*	*	*	*lig	*	*	*
2BB-/	-pit	1r	.	1dd\	-ci-	1B-\	.	1d\	qui
!LO:TX:t=P:problem:kreska pseudotaktowa	!	!	!	!	!	!	!	!	!
2B-\	et	.	.	.	.	.	.	.	.
!	!	!	!	!LO:SIC:v:t=custos a	!	!	!	!	!
2A\	qui	2r	.	2cc\	-pit	1c\	.	2e\	pe-
!	!	!	!	!LO:LB:g=original	!	!	!	!LO:TX:t=P:problem:kreska pseudotaktowa	!
!	!	!LO:TX:t=P:problem:kreska pseudotaktowa	!	!LO:TX:t=P:problem:kreska pseudotaktowa	!	!	!	!	!
2F\	quae-	2A/	ac-	2a\	et	.	.	2f\	-tit
*	*	*	*	*	*	*Xlig	*	*	*
=33-	=33-	=33-	=33-	=33-	=33-	=33-	=33-	=33-	=33-
*	*	*	*	*	*	*lig	*	*	*
1G\	-rit	2d\	.	2b-\	qui	1B-\	-ci-	2d\	ac-
!	!	!	!	!LO:TX:t=P:problem:kreska pseudotaktowa	!	!	!	!	!
.	.	2B-\	-ci-	2dd\	quae-	.	.	4g\	.
!	!	!	!	!	!	!	!	!LO:SIC:v:t=custos e	!
.	.	.	.	.	.	.	.	4f\	.
!LO:TX:t=P:problem:kreska pseudotaktowa	!	!	!	!	!	!	!	!LO:LB:g=original	!
1C/	et	1c\	-pit	2.cc\	.	1G/	.	4e\	.
.	.	.	.	.	.	.	.	4d\	.
.	.	.	.	.	.	.	.	2e\	-ci-
.	.	.	.	4b-\	.	.	.	.	.
*	*	*	*	*	*	*Xlig	*	*	*
!LO:LB:g=original	!	!	!	!	!	!	!	!	!
=34-	=34-	=34-	=34-	=34-	=34-	=34-	=34-	=34-	=34-
*	*	*lig	*	*	*	*	*	*	*
!	!	!	!	!	!	!LO:TX:t=P:problem:kreska pseudotaktowa	!	!LO:TX:t=P:problem:kreska pseudotaktowa	!
2.F\	qui	1c\	et	4a\	-rit	1A\	-pit	1f\	-pit
.	.	.	.	4g\	.	.	.	.	.
.	.	.	.	1a\	in-	.	.	.	.
!LO:TX:t=P:problem:kreska pseudotaktowa	!	!	!	!	!	!	!	!	!
4E\	.	.	.	.	.	.	.	.	.
!	!	!	!	!	!	!LO:TX:t=P:problem:kreska pseudotaktowa	!	!	!
1D\	.	1F/	.	.	.	1A\	et	1r	.
.	.	.	.	4g/	.	.	.	.	.
!	!	!	!	!LO:TX:t=P:problem:kreska pseudotaktowa	!	!	!	!	!
.	.	.	.	4f/	.	.	.	.	.
*	*	*Xlig	*	*	*	*	*	*	*
=35-	=35-	=35-	=35-	=35-	=35-	=35-	=35-	=35-	=35-
!	!	!	!	!	!	!LO:TX:t=P:problem:kreska pseudotaktowa	!	!	!
2C/	.	2G/	qui	2e/	-ve-	1c\	qui	2r	.
!LO:TX:t=P:problem:kreska pseudotaktowa	!	!	!	!LO:TX:t=P:problem:kreska pseudotaktowa	!	!	!	!LO:TX:t=P:problem:kreska pseudotaktowa	!
!LO:TX:t=g	!	!	!	!	!	!	!	!	!
2F\	quae-	2A/	quae-	2f/	-nit	.	.	2c/	et
!	!	!LO:TX:t=P:problem:kreska pseudotaktowa	!	!	!	!	!	!	!
2E\	-rit	1G/	-rit	1g\	et	1c\	quae-	2e\	qui
2C/	in-	.	.	.	.	.	.	2.g\	quae-
=36-	=36-	=36-	=36-	=36-	=36-	=36-	=36-	=36-	=36-
*	*	*	*	*	*	*lig	*	*	*
1G\	-ve-	2r	.	1b-\	qui	1B-\	.	.	.
.	.	.	.	.	.	.	.	4f\	.
!	!	!LO:TX:t=P:problem:kreska pseudotaktowa	!	!	!	!	!	!LO:TX:t=P:problem:kreska pseudotaktowa	!
.	.	2G/	et	.	.	.	.	2d\	.
!LO:TX:t=P:problem:kreska pseudotaktowa	!	!	!	!LO:TX:t=P:problem:kreska pseudotaktowa	!	!	!	!	!
1C/	-nit	2G/	qui	1g\	.	1c\	.	1e\	-rit
.	.	1c\	queae-	.	.	.	.	.	.
*	*	*	*	*	*	*Xlig	*	*	*
=37-	=37-	=37-	=37-	=37-	=37-	=37-	=37-	=37-	=37-
!	!	!	!	!	!	!LO:TX:t=P:problem:kreska pseudotaktowa	!	!	!
2r	.	.	.	2cc\	quae-	1A\	-rit	2c/	in-
1D\	et	2d\	.	2.a\	-rit	.	.	2.f\	-ve-
!	!	!LO:TX:t=P:problem:kreska pseudotaktowa	!	!	!	!	!	!	!
*	*	*	*	*	*	*lig	*	*	*
.	.	1A\	-rit	.	.	1F/	in-	.	.
.	.	.	.	4g/	.	.	.	4e\	.
(1F\	pul-	.	.	4f/	.	.	.	4d\	.
!	!	!	!	!LO:TX:t=P:problem:kreska pseudotaktowa	!	!	!	!	!
.	.	.	.	4e/	.	.	.	4c/	.
=38-	=38-	=38-	=38-	=38-	=38-	=38-	=38-	=38-	=38-
.	.	1r	.	2d/	.	1G/	.	2B-/	.
!LO:TX:t=P:problem:kreska pseudotaktowa	!	!	!	!	!	!	!	!	!
2E\)	.	.	.	1g\	et	.	.	2c/	.
*	*	*	*	*	*	*Xlig	*	*	*
*	*	*	*	*	*	*lig	*	*	*
!	!	!	!	!	!	!	!	!LO:TX:t=P:problem:kreska pseudotaktowa	!
1D\	-san-	2r	.	.	.	1A\	-ve-	0.d\	-nit
!	!	!LO:TX:t=P:problem:kreska pseudotaktowa	!	!LO:TX:t=P:problem:kreska pseudotaktowa	!	!	!	!	!
.	.	2D/	in-	2f/	qui	.	.	.	.
=39-	=39-	=39-	=39-	=39-	=39-	=39-	=39-	=39-	=39-
2GG/	-ti	2D/	-ve-	1b-\	queae-	1G/	.	.	.
!LO:TX:t=P:problem:kreska pseudotaktowa	!	!	!	!	!	!	!	!	!
2GG/	et	1G/	-nit	.	.	.	.	.	.
*	*	*	*	*	*	*Xlig	*	*	*
!	!	!	!	!LO:SIC:v:t=custos f	!	!	!	!	!
*	*	*	*	*	*	*lig	*	*	*
1D\	pul-	.	.	2a\	-rit	1A\	.	.	.
!	!	!LO:TX:t=P:problem:kreska pseudotaktowa	!	!LO:LB:g=original	!	!	!	!	!
.	.	2F/	in-	1f/	in-	.	.	.	.
=40-	=40-	=40-	=40-	=40-	=40-	=40-	=40-	=40-	=40-
*lig	*	*	*	*	*	*	*	*	*
1C/	-san-	1G/	-ve-	.	.	1c\	.	1r	.
!	!	!	!	!LO:TX:t=P:problem:kreska pseudotaktowa	!	!	!	!	!
.	.	.	.	2e/	-ve-	.	.	.	.
*	*	*	*	*	*	*Xlig	*	*	*
!	!	!	!	!	!	!LO:LB:g=original	!	!	!
!	!	!LO:LB:g=original	!	!	!	!LO:TX:t=P:problem:kreska pseudotaktowa	!	!	!
1D\	.	1.F/	-nit	2.f/	.	1A\	-nit	2r	.
.	.	.	.	.	.	.	.	1d\	et
.	.	.	.	4g\	.	.	.	.	.
*Xlig	*	*	*	*	*	*	*	*	*
=41-	=41-	=41-	=41-	=41-	=41-	=41-	=41-	=41-	=41-
!LO:TX:t=P:problem:kreska pseudotaktowa	!	!	!	!	!	!	!	!	!
1AA/	-ti	.	.	2a\	-nit	1A\	et	.	.
.	.	2E/	et	1a\	et	.	.	4c/	.
!	!	!	!	!	!	!	!	!LO:TX:t=P:problem:kreska pseudotaktowa	!
.	.	.	.	.	.	.	.	4B-/	.
2r	.	2F/	pul-	.	.	1c\	pul-	2A/	.
2AA/	et	2A/	-ſan-	1cc\	pul-	.	.	1e\	.
=42-	=42-	=42-	=42-	=42-	=42-	=42-	=42-	=42-	=42-
!LO:SIC:v:t=custos D	!	!	!	!	!	!	!	!	!
!LO:TX:t=P:problem:kreska pseudotaktowa	!	!LO:TX:t=P:problem:kreska pseudotaktowa	!	!	!	!	!	!	!
*	*	*	*	*	*	*lig	*	*	*
1C/	pul-	1G/	-ti	.	.	1c\	-ſan-	.	.
!	!	!	!	!LO:TX:t=P:problem:kreska pseudotaktowa	!	!	!	!LO:SIC:v:t=custos f	!
.	.	.	.	2cc\	-ſan-	.	.	2e\	pul-
!LO:LB:g=original	!	!	!	!	!	!	!	!LO:LB:g=original	!
1D\	-ſan-	2r	.	1f/	-ti	1A\	.	2f\	-ſan-
!	!	!	!	!	!	!	!	!LO:TX:t=P:problem:kreska pseudotaktowa	!
.	.	2F/	a-	.	.	.	.	2d\	-ti
*	*	*	*	*	*	*Xlig	*	*	*
=43-	=43-	=43-	=43-	=43-	=43-	=43-	=43-	=43-	=43-
!LO:TX:t=P:problem:kreska pseudotaktowa	!	!	!	!	!	!	!	!	!
*	*	*	*	*	*	*lig	*	*	*
1C/	-ti	1.G/	-pe-	2r	.	1c\	.	1e\	et
!	!	!	!	!LO:TX:t=P:problem:kreska pseudotaktowa	!	!	!	!	!
.	.	.	.	2g/	a-	.	.	.	.
2r	.	.	.	4g\	-pe-	1B-\	.	2d\	pul-
.	.	.	.	4a\	.	.	.	.	.
!	!	!LO:TX:t=P:problem:kreska pseudotaktowa	!	!	!	!	!	!	!
2GG/	et	2G/	-ri-	4b-\	.	.	.	4G/	-ſan-
!	!	!	!	!	!	!	!	!LO:TX:t=P:problem:kreska pseudotaktowa	!
.	.	.	.	4cc\	.	.	.	4A/	.
*	*	*	*	*	*	*Xlig	*	*	*
=44-	=44-	=44-	=44-	=44-	=44-	=44-	=44-	=44-	=44-
*	*	*	*	*	*	*lig	*	*	*
4GG/	pul-	2.D/	-e-	2dd\	.	1G/	.	4B-/	.
4AA/	.	.	.	.	.	.	.	4c/	.
!	!	!	!	!LO:TX:t=P:problem:kreska pseudotaktowa	!	!	!	!	!
4BB-/	.	.	.	2b-\	-ri-	.	.	1d\	.
!LO:TX:t=P:problem:kreska pseudotaktowa	!	!	!	!	!	!	!	!	!
4C/	.	4E/	.	.	.	.	.	.	.
4D\	.	4F/	.	2.a\	-e-	1A\	.	.	.
4E\	.	4G/	.	.	.	.	.	.	.
!	!	!LO:TX:t=P:problem:kreska pseudotaktowa	!	!	!	!	!	!LO:TX:t=P:problem:kreska pseudotaktowa	!
2F\	.	2A/	.	.	.	.	.	2c/	-ti
.	.	.	.	4g/	.	.	.	.	.
*	*	*	*	*	*	*Xlig	*	*	*
=45-	=45-	=45-	=45-	=45-	=45-	=45-	=45-	=45-	=45-
!	!	!	!	!LO:TX:t=P:problem:kreska pseudotaktowa	!	!	!	!	!
*	*	*	*	*	*	*lig	*	*	*
2BB-/	.	2B-\	-tur	1f/	-tur	1F/	-ti	2d\	pul-
2D/	-ſan-	2F/	a-	.	.	.	.	1f\	-ſan-
!LO:TX:t=P:problem:kreska pseudotaktowa	!	!	!	!	!	!LO:TX:t=P:problem:kreska pseudotaktowa	!	!	!
1C/	-ti	2c\	-pe-	2r	.	1G/	.	.	.
!	!	!LO:TX:t=P:problem:kreska pseudotaktowa	!	!	!	!	!	!	!
.	.	2c\	-ri-	2g/	a-	.	.	2e\	.
*	*	*	*	*	*	*Xlig	*	*	*
=46-	=46-	=46-	=46-	=46-	=46-	=46-	=46-	=46-	=46-
*	*	*	*	*	*	*lig	*	*	*
!	!	!	!	!	!	!	!	!LO:TX:t=P:problem:kreska pseudotaktowa	!
2r	.	2.A\	-e-	2a\	-pe-	1F/	a-	1f\	-ti
!	!	!	!	!LO:TX:t=P:problem:kreska pseudotaktowa:między nutą a kropką	!	!	!	!	!
2F\	a-	.	.	2.f/	-ri-	.	.	.	.
.	.	4B-\	.	.	.	.	.	.	.
!LO:TX:t=P:problem:kreska pseudotaktowa	!	!LO:TX:t=P:problem:kreska pseudotaktowa	!	!	!	!	!	!	!
1F\	-pe-	0c\	-tur	.	.	1A\	.	2r	.
.	.	.	.	4g\	-e-	.	.	.	.
.	.	.	.	4a\	.	.	.	2.c/	a-
.	.	.	.	4b-\	.	.	.	.	.
*	*	*	*	*	*	*Xlig	*	*	*
!	!	!	!	!LO:LB:g=original	!	!	!	!	!
=47-	=47-	=47-	=47-	=47-	=47-	=47-	=47-	=47-	=47-
*	*	*	*	*	*	*lig	*	*	*
2C/	-ri-	.	.	2cc\	.	1G/	-pe-	.	.
.	.	.	.	.	.	.	.	4d\	.
2.C/	-e-	.	.	2.g/	.	.	.	4e\	.
!	!	!	!	!	!	!	!	!LO:TX:t=P:problem:kreska pseudotaktowa	!
.	.	.	.	.	.	.	.	4f\	.
.	.	1r	.	.	.	1c\	.	2g\	.
4D\	.	.	.	4f/	.	.	.	.	.
4E\	.	.	.	4g\	.	.	.	2e\	-pe-
!LO:TX:t=P:problem:kreska pseudotaktowa	!	!	!	!	!	!	!	!	!
4F\	.	.	.	4a\	.	.	.	.	.
!	!	!	!	!LO:TX:t=P:problem:kreska pseudotaktowa	!	!	!	!	!
*	*	*	*	*	*	*Xlig	*	*	*
=48-	=48-	=48-	=48-	=48-	=48-	=48-	=48-	=48-	=48-
*	*	*	*	*	*	*lig	*	*	*
1G\	.	2r	.	1b-\	.	1B-\	.	2d\	-ri-
!	!	!	!	!	!	!	!	!LO:TX:t=P:problem:kreska pseudotaktowa:między nutą a kropką	!
.	.	1G/	a-	.	.	.	.	2.g\	-e-
2C/	-tur	.	.	2g/	-tur	1c\	.	.	.
*	*	*	*	*	*	*Xlig	*	*	*
.	.	.	.	.	.	.	.	4f\	.
!LO:TX:t=P:problem:kreska pseudotaktowa	!	!LO:TX:t=P:problem:kreska pseudotaktowa	!	!LO:TX:t=P:problem:kreska pseudotaktowa	!	!	!	!	!
2C/	a-	2G/	-pe-	2cc\	a-	.	.	4e\	.
.	.	.	.	.	.	.	.	4d\	.
!LO:LB:g=original	!	!LO:LB:g=original	!	!	!	!	!	!	!
=49-	=49-	=49-	=49-	=49-	=49-	=49-	=49-	=49-	=49-
!	!	!	!	!	!	!	!	!LO:TX:t=P:problem:kreska pseudotaktowa	!
2.F\	-pe-	2A/	-ri-	2cc\	-pe-	1A\	-ri-	1c\	-tur
.	.	2.F/	-e-	2.a\	-ri-	.	.	.	.
4E\	-ri-	.	.	.	.	.	.	.	.
*lig	*	*	*	*	*	*lig	*	*	*
!	!	!	!	!	!	!	!	!LO:LB:g=original	!
1D\	-e-	.	.	.	.	1F/	-e-	1r	.
.	.	4G/	.	4g/	-e-	.	.	.	.
.	.	4A/	.	1f/	.	.	.	.	.
!	!	!LO:TX:t=P:problem:kreska pseudotaktowa	!	!	!	!	!	!	!
.	.	4B-/	-tur	.	.	.	.	.	.
=50-	=50-	=50-	=50-	=50-	=50-	=50-	=50-	=50-	=50-
!LO:TX:t=P:problem:kreska pseudotaktowa	!	!	!	!	!	!	!	!	!
1C/	.	2c\	.	.	.	1G/	.	2r	.
!	!	!	!	!	!	!	!	!LO:TX:t=P:problem:kreska pseudotaktowa	!
.	.	2C/	a-	2e/	.	.	.	2c/	a-
*Xlig	*	*	*	*	*	*Xlig	*	*	*
2FF,</	-tur	2C/	-pe-	[1f/l;;	-tur-	1F/	.	2c/	-pe-
!LO:TX:t=P:problem:kreska pseudotaktowa	!	!	!	!	!	!	!	!	!
2FF/	a-	2F/	-ri-	.	.	.	.	2c/	-ri-
=51-	=51-	=51-	=51-	=51-	=51-	=51-	=51-	=51-	=51-
2BB-/	-pe-	0D/	-e-	0f/_	.	[0F/l;;	-tur-	2.d\	-e-
2BB-/	-ri-	.	.	.	.	.	.	.	.
!	!	!	!	!	!	!	!	!LO:TX:t=P:problem:kreska pseudotaktowa	!
.	.	.	.	.	.	.	.	4c/	.
1BB-/	-e-	.	.	.	.	.	.	1.B-/	.
=52-	=52-	=52-	=52-	=52-	=52-	=52-	=52-	=52-	=52-
0FF/;;	-tur-	0C/;;	-tur-	0f/]	.	0F/]	.	.	.
.	.	.	.	.	.	.	.	4A/	.
.	.	.	.	.	.	.	.	4G/	.
!	!	!	!	!	!	!	!	!LO:N:vis=0	!
.	.	.	.	.	.	.	.	1A/;;	-tur-
==	==	==	==	==	==	==	==	==	==
*-	*-	*-	*-	*-	*-	*-	*-	*-	*-
!!!system-decoration: [(s1,s2,s3,s4,s5)]
!!!RDF**kern: l = terminal long
!!!RDF**kern: > = above
!!!RDF**kern: < = below
!!!EED: Andrzej Borzym
!!!EST: 2021-08-04
!!!ENC:Anastazja Marusiak
!!!END:2021-07-13
